X:1

T:Batchelder’s Reel

L:1/8

M:C|

K:F

f2af ef ge|f2c2c2=Bc|dc BA BA GF|EF GA Bc de|

f2af ef ge|f2c2 (3cdc =Bc|dc BA BA GF|EF GE F4:|

|:A2cA cA cA|B2dB dB dB|A2cA cA cA|BA GF EF GB|

A2cA cA cA|B2dB dB dB|Ac fa bg eg|f2a2f2c2:|

           

BATEUSE, THE. English, Jig. England, Shropshire. G Major. Standard tuning. AB. The 'B' part has nine measures. Source for notated version: a c. 1837-1840 MS by Shropshire musician John Moore [Ashman]. Ashman (The Ironbridge Hornpipe), 1991; No., 100a, pg. 41. 

           

BATH, THE. English, Country Dance ("Longways for as many as will"). Playford, The English Dancing Master (1651). Raven (English Country Dance Tunes), 1984; pg. 42.

           

BATH CARNIVAL. AKA and see "Keppel's Delight." English, Country Dance Tune (6/8 time). A Major. Standard tuning. AABB. The melody under this title first appears in Thompson’s Compleat Collection of 200 Country Dances, vol. 4 (1780). The Roman name for Bath was Aquae Sulis, the ‘waters of Sulis’ (Sulis was a Celtic goddess with affinities to Minerva), referring to the hot springs found there, but when the English conquered the territory they called it simply ‘the baths,’ later simply Bath (Matthews, 1972). For many years it was part of the Anglo-Saxon kingdom of Mercia, and its abbey was chosen by Dunstan as the site of the first major coronation in 973 when Edgar was crowned King of the English with his queen Elfrida. Bath regained notoriety as a spa in the 18th century when much of the town center was rebuilt, and received patronage from George III and his queen, Charlotte, and after, George IV, and it is to this era that the title speaks. The Assembly Rooms at Bath, part of the spa, were built in the 1740’s and were in the form of a long, rectangular space to accommodate country dancing. The melody was published in London in 1776 (by Longman, Lukey and Broderip) as “Keppel’s Delight” (probably a reference to Admiral Augustus Keppel) in Bride’s Favourite Collection of 200 Country Dances, Cotillons. This title seems to predate the “Bath Carnival” title, which, in any case, has appeared in period publications as “Bath Carnival, to the tune of Keppel’s Delight.” Barnes (English Country Dance Tune), 1989. Johnson (Twenty‑Eight Country Dances as Done at the New Boston Fair), vol. 8, 1988; pg. 1.

           

BATH FROLICK. AKA and see "Successful Campaign."

           

BATH HORNPIPE.  English, Hornpipe. G Major. Standard tuning. AABB. The tune appears as an untitled hornpipe in Helperby, Yorkshire, fiddler Lawrence Leadley’s (1827-1897) music manuscript copybook, compiled primarily in the 1840’s and 1850’s. It also appears in the G. Huddeswell manuscript, Leeds, Yorkshire. There was a “New Bath Hornpipe” in William Vickers 1780 Northumbrian manuscript, and, while some tunes with the appellation “New…” are sometimes written in response (or to ride the coattails of) a popular tune, Leadley’s “Bath Hornpipe” does not sound like it predated the 19th century. Callaghan (Hardcore English), 2007; pg. 14. Merryweather & Seattle (The Fiddler of Helperby), 1994; No. 3, pg. 28 (appears as Untitled Hornpipe I).

